!!!COM: Palestrina, Giovanni Perluigi da
!!!OPR: Missa In semidupl. maj. (II)
!!!OMD: Credo
!!!OTL: Genitum
**kern	**kern	**kern	**kern	**kern
*Ibass	*Itenor	*Itenor	*Icalto	*Icant
!Bassus	!Tenor 2	!Tenor 1	!Altus	!Cantus
*clefF4	*clefGv2	*clefGv2	*clefG2	*clefG2
*k[b-]	*k[b-]	*k[b-]	*k[b-]	*k[b-]
*F:ion	*F:ion	*F:ion	*F:ion	*F:ion
*M4/2	*M4/2	*M4/2	*M4/2	*M4/2
=33	=33	=33	=33	=33
0r	1r	1.F	0r	0r
.	2r	.	.	.
.	[2C	2G	.	.
=34	=34	=34	=34	=34
0r	2C]	2A	0r	0r
.	2D	2B-	.	.
.	2E	1c	.	.
.	2F	.	.	.
=35	=35	=35	=35	=35
1r	1G	4B-	0r	0r
.	.	4A	.	.
.	.	4B-	.	.
.	.	4c	.	.
2r	4F	2d	.	.
.	4E	.	.	.
[2FF	4F	[2c	.	.
.	4G	.	.	.
=36	=36	=36	=36	=36
2FF]	2A	2c]	0r	0r
2GG	2.G	2B-	.	.
2AA	.	2c	.	.
.	4F	.	.	.
2BB-	[2F	4B-	.	.
.	.	4A	.	.
=37	=37	=37	=37	=37
1C	2F]	1G	1c	1r
.	2E	.	.	.
1BB-	1F	2r	[1d	1f
.	.	[2B-	.	.
=38	=38	=38	=38	=38
0r	0r	2B-]	2d]	2g
.	.	2c	2e	2a
.	.	2d	2f	2b-
.	.	2e	2g	[2cc
=39	=39	=39	=39	=39
0r	0r	2f	2a	2cc]
.	.	2F	2.f	2a
.	.	1G	.	1b-
.	.	.	8e	.
.	.	.	8d	.
.	.	.	2e	.
=40	=40	=40	=40	=40
0r	1r	2.F	2f	1a
.	.	.	2f	.
.	.	4G	.	.
.	1F	4A	2c	1a
.	.	4G	.	.
.	.	4A	[2f	.
.	.	4B-	.	.
=41	=41	=41	=41	=41
0r	1C	1c	2f]	1g
.	.	.	2e	.
.	1F	1r	2d	4a
.	.	.	.	4g
.	.	.	2c	4f
.	.	.	.	4e
=42	=42	=42	=42	=42
1BB-	2F	0r	1B-	2d
.	2G	.	.	2d
1FF	1A	.	2.c	2f
.	.	.	.	2c
.	.	.	4A	.
=43	=43	=43	=43	=43
1BB-	1F	0r	4B-	2d
.	.	.	4c	.
.	.	.	1d	2.f
2BB-	1G	.	.	.
.	.	.	.	8e
.	.	.	.	8d
2C	.	.	2c	2e
=44	=44	=44	=44	=44
2D	4F	1F	2A	1a
.	4G	.	.	.
2.F	4A	.	2F	.
.	4B-	.	.	.
.	[1c	1C	1G	2g
8E	.	.	.	.
8D	.	.	.	.
2E	.	.	.	[2cc
=45	=45	=45	=45	=45
2F	2c]	1F	2A	2cc]
2BB-	2d	.	2B-	2b-
2FF	2c	2F	1c	2a
2C	2C	2G	.	[2g
=46	=46	=46	=46	=46
2AA	2E	1A	1.c	4g]
.	.	.	.	4f
2FF	2F	.	.	1f
2C	2G	1G	.	.
2C	2c	.	2G	2e
=47	=47	=47	=47	=47
[0FF	[0A	[0F	[0c	[0f
=48	=48	=48	=48	=48
0FF]	0A]	0F]	0c]	0f]
*-	*-	*-	*-	*-
!!!CDT: 1525/^1526/-1594/2/2
!!!OCY: Italia
!!!AGN: Mass (Paraphrase)
!!!AST: renaissance, vocal
!!!ASW: Gregorian Mass
!!!PWK: Masses, Book Mantuan II
!!!RNB: Cadence finals: C
!!!YOR: Le Opere Complete, v. 19, p. 87
!!!YOO: Rome, Italy: Fratelli Scalera
!!!END: 1992//
!!!EED: John Miller
!!!YEC: Copyright 2000, John Miller
!!!YEN: United States of America
!!!YEM: Rights to all derivative electronic formats reserved.
!!!YEM: Refer to licensing agreement for further details.
!!!YEM: This file must be accompanied by the licensing agreement.
!!!YEM: A copy of the licensing agreement may be found at http://www.music-cog.ohio-state.edu/HumdrumDatabases/Palestrina/license.txt
!!!EMD: converted to Humdrum by Bret Aarden
